X:55
T:Trip to Hackney
M:C|
L:1/8
B:Thompson's Compleat Collection of 200 Favourite Country Dances, vol. 1 (London, 1757)
Z:Transcribed and edited by Fynnian Titford-Mock, 2007
Z:abc's:AK/Fiddler's Companion
K:F
fg|a2 gf g2 fe|f2c2c2 fg|a2 gf g2 fe|f4 F2:|
|:AB|c2 BA G2 AB|cBAB c2f2|c2 BA BdcB|A4 F2:|

